src/icons/logotype-color.svg

<?xml version="1.0" encoding="UTF-8"?>
<svg width="922px" height="205px" viewBox="0 0 922 205" version="1.1" xmlns="http://www.w3.org/2000/svg" xmlns:xlink="http://www.w3.org/1999/xlink">
    <g  stroke="none" stroke-width="1" fill="none" fill-rule="evenodd">
        <g transform="translate(0.000000, 67.716200)" fill="var(--international-orange)">
            <path d="M105.9052,57.948 C120.5912,57.948 127.6692,46.978 127.6692,32.026 C127.6692,17.164 120.5912,6.193 105.9052,6.193 C91.1302,6.193 83.9642,17.164 83.9642,32.026 C83.9642,46.978 91.1302,57.948 105.9052,57.948 M105.9052,0 C124.1302,0 134.9232,13.89 134.9232,32.026 C134.9232,50.252 124.1302,64.141 105.9052,64.141 C87.5032,64.141 76.7102,50.252 76.7102,32.026 C76.7102,13.89 87.5032,0 105.9052,0" id="Fill-135"></path>
            <path d="M165.0093,57.0632 C176.0683,57.0632 188.9843,55.1172 188.9843,32.0262 C188.9843,9.0242 176.0683,7.0782 165.0093,7.0782 L152.4463,7.0782 L152.4463,57.0632 L165.0093,57.0632 Z M196.2393,32.0262 C196.2393,58.9212 180.1373,63.2562 165.0093,63.2562 L145.1923,63.2562 L145.1923,0.8842 L165.0093,0.8842 C180.1373,0.8842 196.2393,5.2192 196.2393,32.0262 L196.2393,32.0262 Z" id="Fill-137"></path>
            <polygon id="Fill-139" points="206.5073 63.2565 206.5073 0.8845 245.1693 0.8845 245.1693 7.0775 213.7613 7.0775 213.7613 28.9305 240.7453 28.9305 240.7453 35.1225 213.7613 35.1225 213.7613 57.0635 245.1693 57.0635 245.1693 63.2565"></polygon>
            <path d="M262.6894,32.0261 L276.1374,32.0261 C286.7534,32.0261 293.2114,30.9641 293.2114,19.5521 C293.2114,8.0511 286.7534,7.0781 276.1374,7.0781 L262.6894,7.0781 L262.6894,32.0261 Z M255.4354,63.2561 L255.4354,0.8841 L276.1374,0.8841 C291.0004,0.8841 300.4664,4.3361 300.4664,18.3131 C300.4664,27.6911 295.6004,31.8491 288.8764,33.0001 L288.8764,35.1231 L296.3084,35.1231 C299.8474,35.1231 301.2624,36.5391 301.2624,39.8121 L301.2624,63.2561 L294.0074,63.2561 L294.0074,38.2191 L262.6894,38.2191 L262.6894,63.2561 L255.4354,63.2561 Z" id="Fill-141"></path>
            <polygon id="Fill-143" points="313.1216 63.2565 313.1216 0.8845 327.7196 0.8845 358.3296 59.7175 360.8956 59.7175 359.7456 56.0015 359.7456 0.8845 366.9116 0.8845 366.9116 63.2565 352.3136 63.2565 321.7916 4.4235 319.2256 4.4235 320.3756 8.1395 320.3756 63.2565"></polygon>
            <path d="M634.6255,35.5652 C645.2425,35.5652 653.0275,33.6192 653.0275,21.2332 C653.0275,9.0242 645.2425,7.0782 634.6255,7.0782 L624.2745,7.0782 L624.2745,35.5652 L634.6255,35.5652 Z M660.2815,21.2332 C660.2815,37.6002 650.2845,41.7582 634.5375,41.7582 L624.2745,41.7582 L624.2745,63.2562 L617.0205,63.2562 L617.0205,0.8842 L634.5375,0.8842 C650.2845,0.8842 660.2815,4.9552 660.2815,21.2332 L660.2815,21.2332 Z" id="Fill-145"></path>
            <polygon id="Fill-147" points="669.664 63.2565 669.664 0.8845 708.326 0.8845 708.326 7.0775 676.918 7.0775 676.918 28.9305 703.902 28.9305 703.902 35.1225 676.918 35.1225 676.918 57.0635 708.326 57.0635 708.326 63.2565"></polygon>
            <path d="M743.3637,57.948 C758.0497,57.948 765.1277,46.978 765.1277,32.026 C765.1277,17.164 758.0497,6.193 743.3637,6.193 C728.5887,6.193 721.4227,17.164 721.4227,32.026 C721.4227,46.978 728.5887,57.948 743.3637,57.948 M743.3637,0 C761.5887,0 772.3817,13.89 772.3817,32.026 C772.3817,50.252 761.5887,64.141 743.3637,64.141 C724.9617,64.141 714.1687,50.252 714.1687,32.026 C714.1687,13.89 724.9617,0 743.3637,0" id="Fill-149"></path>
            <path d="M800.2558,35.5652 C810.8718,35.5652 818.6578,33.6192 818.6578,21.2332 C818.6578,9.0242 810.8718,7.0782 800.2558,7.0782 L789.9048,7.0782 L789.9048,35.5652 L800.2558,35.5652 Z M825.9118,21.2332 C825.9118,37.6002 815.9148,41.7582 800.1678,41.7582 L789.9048,41.7582 L789.9048,63.2562 L782.6508,63.2562 L782.6508,0.8842 L800.1678,0.8842 C815.9148,0.8842 825.9118,4.9552 825.9118,21.2332 L825.9118,21.2332 Z" id="Fill-151"></path>
            <path d="M840.6909,64.1413 C837.2409,64.2303 835.2949,62.1953 835.2949,58.8323 L835.2949,0.8843 L842.5489,0.8843 L842.5489,57.9483 L873.9559,57.0633 L873.9559,63.2563 L840.6909,64.1413 Z" id="Fill-153"></path>
            <polygon id="Fill-155" points="883.3379 63.2565 883.3379 0.8845 921.9999 0.8845 921.9999 7.0775 890.5919 7.0775 890.5919 28.9305 917.5759 28.9305 917.5759 35.1225 890.5919 35.1225 890.5919 57.0635 921.9999 57.0635 921.9999 63.2565"></polygon>
            <polygon id="Fill-134" points="0 63.2565 0 0.8845 14.598 0.8845 32.292 59.7175 34.326 59.7175 52.109 0.8845 66.618 0.8845 66.618 63.2565 59.363 63.2565 59.363 8.1395 60.602 4.4235 58.302 4.4235 40.52 63.2565 26.187 63.2565 8.404 4.4235 6.104 4.4235 7.254 8.1395 7.254 63.2565"></polygon>
        </g>
        <path d="M485.4684,114.9128 C476.2374,114.9128 468.7274,107.4028 468.7274,98.1718 C468.7274,88.9398 476.2374,81.4298 485.4684,81.4298 C494.6994,81.4298 502.2094,88.9398 502.2094,98.1718 C502.2094,107.4028 494.6994,114.9128 485.4684,114.9128 M485.4684,77.7538 C474.2104,77.7538 465.0504,86.9128 465.0504,98.1718 C465.0504,109.4298 474.2104,118.5888 485.4684,118.5888 C496.7264,118.5888 505.8864,109.4298 505.8864,98.1718 C505.8864,86.9128 496.7264,77.7538 485.4684,77.7538" id="Fill-157" fill="var(--white)"></path>
        <path d="M560.4745,127.378 C553.6085,134.244 548.7485,139.954 548.7485,150.961 C548.7485,150.993 548.7475,154.14 548.6295,155.974 C548.4715,158.433 546.5545,159.714 545.4265,160.259 C542.7215,161.564 539.2415,161.37 536.9615,159.787 C536.6245,159.553 536.3465,159.327 536.1355,159.116 L532.2665,155.247 C529.5375,152.518 525.9085,151.015 522.0485,151.015 L500.1025,151.015 C496.2425,151.015 492.6135,152.518 489.8835,155.247 L486.2685,159.678 C485.9725,160.001 485.6705,160.477 485.1195,161.359 C484.5015,162.346 482.6225,165.349 481.7805,165.659 C479.9505,166.018 478.1105,165.608 476.6015,164.504 C475.1255,163.423 474.1905,161.839 473.9635,160.037 L473.6015,146.734 C473.6015,136.154 469.4805,126.206 461.9985,118.724 C457.8405,114.565 454.7375,109.393 453.0265,103.765 C451.6645,99.287 451.3895,94.044 452.2045,88.199 L454.3265,73.946 C454.4705,73.269 454.5505,72.569 454.5505,71.85 L454.5505,66.978 L463.7305,67.241 C467.3705,67.344 469.3935,66.811 470.9555,65.336 L473.9825,62.478 C475.1875,61.34 476.7645,60.738 478.4195,60.787 L492.4045,61.188 C494.0615,61.235 495.5995,61.925 496.7375,63.129 L499.1325,65.665 C500.9435,67.584 503.3945,68.682 506.0575,68.758 L529.6825,69.108 L529.6825,69.129 L533.2505,69.231 C533.5415,69.239 533.8215,69.243 534.0935,69.243 C537.2085,69.243 539.0385,68.682 540.4755,67.326 L543.5015,64.468 C544.7065,63.33 546.2855,62.737 547.8835,62.775 L562.1865,63.618 C561.3235,65.648 560.3045,67.639 559.1165,69.57 C558.1015,71.22 557.5655,73.115 557.5655,75.052 L557.5655,77.759 C557.4965,77.759 557.4285,77.754 557.3595,77.754 C546.1005,77.754 536.9415,86.913 536.9415,98.171 C536.9415,109.43 546.1005,118.589 557.3595,118.589 C561.4265,118.589 565.2175,117.389 568.4045,115.33 C566.5995,119.824 563.9035,123.949 560.4745,127.378 L560.4745,127.378 Z M540.5355,175.077 C538.0035,174.348 534.3065,173.306 529.4555,171.954 C522.1885,169.93 514.4295,169.608 507.0175,171.023 L495.0865,173.3 C489.7675,174.315 484.2475,172.875 480.1085,169.441 C480.2455,169.447 480.3825,169.457 480.5205,169.457 C481.1765,169.457 481.8355,169.395 482.4875,169.267 C484.6175,168.849 486.3505,166.321 488.2355,163.308 C488.5195,162.855 488.8725,162.291 488.9515,162.19 L492.5475,157.783 C494.5755,155.789 497.2545,154.691 500.1025,154.691 L522.0485,154.691 C524.9265,154.691 527.6325,155.812 529.6675,157.847 L533.5365,161.716 C533.9025,162.081 534.3495,162.449 534.8655,162.807 C535.4875,163.238 536.1605,163.6 536.8705,163.892 C538.1415,167.645 539.4125,171.52 540.5355,175.077 L540.5355,175.077 Z M536.0315,201.116 C535.6475,201.116 534.8885,201.124 533.8185,201.136 C492.6395,201.58 478.9585,199.761 474.7375,198.157 C468.8985,195.938 452.5635,180.721 429.9025,156.395 C434.3225,153.687 438.0145,146.667 440.0395,137.211 C445.3795,142.162 458.3575,154.24 476.8275,171.451 C481.8905,176.169 488.9735,178.211 495.7755,176.911 L507.7065,174.634 C514.5655,173.325 521.7455,173.622 528.4695,175.495 C536.3785,177.699 540.1035,178.769 541.8425,179.287 C543.2895,184.051 544.2785,187.707 544.3315,188.801 C543.3565,191.294 537.8755,200.169 536.0315,201.116 L536.0315,201.116 Z M425.6485,153.944 C423.9115,153.85 422.1595,152.281 420.6655,149.558 L431.4655,149.558 C429.5825,152.468 427.5295,154.043 425.6485,153.944 L425.6485,153.944 Z M408.2155,125.742 C408.2155,114.179 411.5825,106.746 414.3245,105.686 L414.3245,105.826 L415.9415,105.826 C418.6225,107.288 421.7515,114.596 421.7515,125.742 C421.7515,137.688 418.1575,145.226 415.3725,145.882 L414.5945,145.882 C411.8095,145.226 408.2155,137.688 408.2155,125.742 L408.2155,125.742 Z M428.8385,95.11 C431.1025,95.233 433.3485,97.799 435.0555,102.15 L421.5385,102.15 C423.7725,97.572 426.4275,94.975 428.8385,95.11 L428.8385,95.11 Z M433.4285,145.882 L420.7785,145.882 C423.8255,141.361 425.4275,133.394 425.4275,125.742 C425.4275,118.214 423.8765,110.382 420.9255,105.826 L436.2515,105.826 C437.6095,110.912 438.3255,117.537 437.9155,125.105 C437.4525,133.639 435.6955,140.818 433.4285,145.882 L433.4285,145.882 Z M427.7755,90.697 L431.0065,87.466 C434.6225,83.851 439.4285,81.86 444.5415,81.86 C446.4055,81.86 448.1455,81.338 449.6415,80.447 L448.5655,87.675 C447.6735,94.068 447.9915,99.842 449.5095,104.834 C451.3955,111.038 454.8155,116.74 459.3995,121.324 C466.1865,128.111 469.9245,137.136 469.9255,146.789 L470.1535,154.443 L470.2895,160.212 L470.2995,160.344 C465.1995,155.594 459.6145,150.392 454.6285,145.753 C450.5135,141.923 446.8085,138.477 444.1275,135.989 C442.5755,134.549 441.5375,133.585 440.8145,132.93 C441.1785,130.502 441.4425,127.954 441.5865,125.304 C442.6085,106.441 437.2135,91.882 429.0375,91.439 C428.6135,91.416 428.1935,91.443 427.7755,91.495 L427.7755,90.697 Z M481.2895,3.677 L522.2875,3.677 C538.1715,3.677 552.2815,11.955 560.0305,25.82 C564.4095,33.653 566.2035,42.281 565.4355,50.746 L555.5615,40.872 C549.5655,34.876 541.5935,31.574 533.1145,31.574 L480.5795,31.574 C472.6455,31.574 465.1855,34.664 459.5755,40.274 C459.3195,40.53 459.0745,40.794 458.8295,41.057 C454.2835,38.4 449.1345,36.983 443.8515,36.983 C439.1715,36.983 434.5245,38.121 430.3635,40.235 C437.3125,19.047 457.5095,3.677 481.2895,3.677 L481.2895,3.677 Z M450.7785,72.812 L450.7125,73.252 C450.0725,76.071 447.5505,78.183 444.5415,78.183 C438.4465,78.183 432.7165,80.557 428.4075,84.866 L427.7755,85.498 L427.7755,56.418 C427.7755,52.615 428.1955,48.909 428.9755,45.333 C433.3155,42.314 438.5605,40.66 443.8515,40.66 C448.2835,40.66 452.6105,41.791 456.4675,43.93 C452.8385,48.952 450.8745,54.963 450.8745,61.279 L450.8745,71.85 C450.8745,72.179 450.8415,72.499 450.7935,72.814 L450.7785,72.812 Z M506.1385,65.083 C504.4815,65.035 502.9425,64.346 501.8055,63.141 L499.4105,60.605 C497.5985,58.686 495.1475,57.588 492.5105,57.513 L478.5245,57.112 C475.8815,57.04 473.3775,57.993 471.4585,59.805 L468.4325,62.663 C467.8935,63.171 467.0925,63.66 463.8355,63.566 L454.5505,63.3 L454.5505,61.279 C454.5505,54.327 457.2585,47.79 462.1745,42.874 C467.0905,37.958 473.6275,35.25 480.5795,35.25 L533.1145,35.25 C540.6125,35.25 547.6605,38.17 552.9625,43.471 L564.7695,55.278 L564.7735,55.274 C564.4525,56.868 564.0395,58.451 563.5335,60.014 L548.0445,59.102 C545.4055,59.031 542.8965,59.983 540.9775,61.795 L537.9515,64.653 C537.4135,65.161 536.6165,65.65 533.3555,65.556 L530.4715,65.473 L530.4715,65.443 L506.1385,65.083 Z M574.1005,98.171 C574.1005,107.403 566.5895,114.913 557.3595,114.913 C548.1285,114.913 540.6175,107.403 540.6175,98.171 C540.6175,88.94 548.1285,81.43 557.3595,81.43 C566.5895,81.43 574.1005,88.94 574.1005,98.171 L574.1005,98.171 Z M577.7765,98.171 C577.7765,88.241 570.6485,79.948 561.2415,78.129 L561.2415,75.052 C561.2415,73.796 561.5895,72.566 562.2475,71.496 C571.2775,56.816 571.6485,39.07 563.2405,24.026 C554.8315,8.982 539.5225,0 522.2875,0 L481.2895,0 C449.7555,0 424.0995,25.309 424.0995,56.418 L424.0995,92.955 C421.6325,94.664 419.3805,97.787 417.5015,102.15 L416.6785,102.15 C416.1365,101.973 415.5725,101.874 414.9835,101.874 C408.1995,101.874 404.5395,114.171 404.5395,125.742 C404.5395,137.313 408.1995,149.61 414.9835,149.61 C415.2285,149.61 415.4685,149.59 415.7055,149.558 L416.5625,149.558 C419.4115,155.932 422.9315,157.478 425.4495,157.615 C425.5765,157.621 425.7025,157.625 425.8295,157.625 C425.8915,157.625 425.9525,157.617 426.0135,157.615 C426.1885,157.801 426.4975,158.133 426.9295,158.598 C443.5695,176.474 465.1435,198.444 473.4315,201.593 C479.1795,203.777 495.4555,204.88 521.8825,204.88 C525.6665,204.88 529.6595,204.857 533.8585,204.812 C534.9015,204.8 535.6375,204.792 536.0015,204.792 C536.0805,204.792 536.1375,204.794 536.1875,204.793 C540.6965,204.792 547.8215,189.969 547.8735,189.819 C548.0995,189.161 548.6785,187.444 541.0515,164.782 C543.0855,164.861 545.1665,164.466 547.0245,163.569 C550.1725,162.049 552.0955,159.367 552.2975,156.21 C552.4235,154.257 552.4255,151.095 552.4255,150.961 C552.4255,142.063 555.5645,137.487 563.0735,129.978 C567.6585,125.393 571.0785,119.691 572.9635,113.489 C573.0685,113.144 573.1305,112.641 573.2575,111.488 C573.2775,111.305 573.3025,111.081 573.3265,110.874 C576.1075,107.385 577.7765,102.971 577.7765,98.171 L577.7765,98.171 Z" id="Fill-159" fill="var(--white)"></path>
    </g>
</svg>

<?xml version="1.0" encoding="UTF-8"?><svg xmlns="http://www.w3.org/2000/svg" viewBox="0 0 922 204.88"><defs><style>.d{fill:#fff;}.e{fill:#ff4f00;}</style></defs><g id="a"/><g id="b"><g id="c"><g><g><path class="e" d="M0,130.97v-62.37H14.6l17.69,58.83h2.03l17.78-58.83h14.51v62.37h-7.25v-55.12l1.24-3.72h-2.3l-17.78,58.83h-14.33L8.4,72.14h-2.3l1.15,3.72v55.12H0Z"/><path class="e" d="M105.91,67.72c18.22,0,29.02,13.89,29.02,32.03s-10.79,32.12-29.02,32.12-29.2-13.89-29.2-32.12,10.79-32.03,29.2-32.03Zm0,57.95c14.69,0,21.76-10.97,21.76-25.92s-7.08-25.83-21.76-25.83-21.94,10.97-21.94,25.83,7.17,25.92,21.94,25.92Z"/><path class="e" d="M196.24,99.74c0,26.9-16.1,31.23-31.23,31.23h-19.82v-62.37h19.82c15.13,0,31.23,4.33,31.23,31.14Zm-31.23,25.04c11.06,0,23.98-1.95,23.98-25.04s-12.92-24.95-23.98-24.95h-12.56v49.99h12.56Z"/><path class="e" d="M206.51,130.97v-62.37h38.66v6.19h-31.41v21.85h26.98v6.19h-26.98v21.94h31.41v6.19h-38.66Z"/><path class="e" d="M255.44,130.97v-62.37h20.7c14.86,0,24.33,3.45,24.33,17.43,0,9.38-4.87,13.54-11.59,14.69v2.12h7.43c3.54,0,4.95,1.42,4.95,4.69v23.44h-7.25v-25.04h-31.32v25.04h-7.25Zm7.25-31.23h13.45c10.62,0,17.07-1.06,17.07-12.47s-6.46-12.47-17.07-12.47h-13.45v24.95Z"/><path class="e" d="M313.12,130.97v-62.37h14.6l30.61,58.83h2.57l-1.15-3.72v-55.12h7.17v62.37h-14.6l-30.52-58.83h-2.57l1.15,3.72v55.12h-7.25Z"/></g><g><path class="e" d="M660.28,88.95c0,16.37-10,20.53-25.74,20.53h-10.26v21.5h-7.25v-62.37h17.52c15.75,0,25.74,4.07,25.74,20.35Zm-25.66,14.33c10.62,0,18.4-1.95,18.4-14.33s-7.79-14.16-18.4-14.16h-10.35v28.49h10.35Z"/><path class="e" d="M669.66,130.97v-62.37h38.66v6.19h-31.41v21.85h26.98v6.19h-26.98v21.94h31.41v6.19h-38.66Z"/><path class="e" d="M743.36,67.72c18.22,0,29.02,13.89,29.02,32.03s-10.79,32.12-29.02,32.12-29.2-13.89-29.2-32.12,10.79-32.03,29.2-32.03Zm0,57.95c14.69,0,21.76-10.97,21.76-25.92s-7.08-25.83-21.76-25.83-21.94,10.97-21.94,25.83,7.17,25.92,21.94,25.92Z"/><path class="e" d="M825.91,88.95c0,16.37-10,20.53-25.74,20.53h-10.26v21.5h-7.25v-62.37h17.52c15.75,0,25.74,4.07,25.74,20.35Zm-25.66,14.33c10.62,0,18.4-1.95,18.4-14.33s-7.79-14.16-18.4-14.16h-10.35v28.49h10.35Z"/><path class="e" d="M840.69,131.86c-3.45,.09-5.4-1.95-5.4-5.31v-57.95h7.25v57.06l31.41-.88v6.19l-33.27,.88Z"/><path class="e" d="M883.34,130.97v-62.37h38.66v6.19h-31.41v21.85h26.98v6.19h-26.98v21.94h31.41v6.19h-38.66Z"/></g></g><g><path class="d" d="M485.47,77.75c-11.26,0-20.42,9.16-20.42,20.42s9.16,20.42,20.42,20.42,20.42-9.16,20.42-20.42-9.16-20.42-20.42-20.42Zm0,37.16c-9.23,0-16.74-7.51-16.74-16.74s7.51-16.74,16.74-16.74,16.74,7.51,16.74,16.74-7.51,16.74-16.74,16.74Z"/><path class="d" d="M577.78,98.17c0-9.93-7.13-18.22-16.53-20.04v-3.08c0-1.26,.35-2.49,1.01-3.56,9.03-14.68,9.4-32.43,.99-47.47-8.41-15.04-23.72-24.03-40.95-24.03h-41c-31.53,0-57.19,25.31-57.19,56.42v36.54c-2.47,1.71-4.72,4.83-6.6,9.19h-.82c-.54-.18-1.11-.28-1.7-.28-6.78,0-10.44,12.3-10.44,23.87s3.66,23.87,10.44,23.87c.25,0,.48-.02,.72-.05h.86c2.85,6.37,6.37,7.92,8.89,8.06,.13,0,.25,.01,.38,.01,.06,0,.12,0,.18,0,.18,.19,.48,.52,.92,.98,16.64,17.88,38.21,39.85,46.5,43,5.75,2.18,22.02,3.29,48.45,3.29,3.78,0,7.78-.02,11.98-.07,1.04-.01,1.78-.02,2.14-.02,.08,0,.14,0,.19,0,4.51,0,11.63-14.82,11.69-14.97,.23-.66,.8-2.37-6.82-25.04,2.03,.08,4.11-.32,5.97-1.21,3.15-1.52,5.07-4.2,5.27-7.36,.13-1.95,.13-5.11,.13-5.25,0-8.9,3.14-13.47,10.65-20.98,4.58-4.58,8-10.29,9.89-16.49,.1-.34,.17-.85,.29-2,.02-.18,.04-.41,.07-.61,2.78-3.49,4.45-7.9,4.45-12.7Zm-3.68,0c0,9.23-7.51,16.74-16.74,16.74s-16.74-7.51-16.74-16.74,7.51-16.74,16.74-16.74,16.74,7.51,16.74,16.74Zm-67.96-33.09c-1.66-.05-3.2-.74-4.33-1.94l-2.39-2.54c-1.81-1.92-4.26-3.02-6.9-3.09l-13.99-.4c-2.64-.07-5.15,.88-7.07,2.69l-3.03,2.86c-.54,.51-1.34,1-4.6,.9l-9.29-.27v-2.02c0-6.95,2.71-13.49,7.62-18.41,4.92-4.92,11.45-7.62,18.41-7.62h52.54c7.5,0,14.55,2.92,19.85,8.22l11.81,11.81h0c-.32,1.59-.73,3.17-1.24,4.74l-15.49-.91c-2.64-.07-5.15,.88-7.07,2.69l-3.03,2.86c-.54,.51-1.34,1-4.6,.9l-2.88-.08v-.03l-24.33-.36Zm-55.36,7.73l-.07,.44c-.64,2.82-3.16,4.93-6.17,4.93-6.09,0-11.82,2.37-16.13,6.68l-.63,.63v-29.08c0-3.8,.42-7.51,1.2-11.09,4.34-3.02,9.59-4.67,14.88-4.67,4.43,0,8.76,1.13,12.62,3.27-3.63,5.02-5.59,11.03-5.59,17.35v10.57c0,.33-.03,.65-.08,.96h-.01ZM481.29,3.68h41c15.88,0,29.99,8.28,37.74,22.14,4.38,7.83,6.17,16.46,5.41,24.93l-9.87-9.87c-6-6-13.97-9.3-22.45-9.3h-52.54c-7.93,0-15.39,3.09-21,8.7-.26,.26-.5,.52-.75,.78-4.55-2.66-9.7-4.07-14.98-4.07-4.68,0-9.33,1.14-13.49,3.25,6.95-21.19,27.15-36.56,50.93-36.56Zm-53.51,87.02l3.23-3.23c3.62-3.62,8.42-5.61,13.53-5.61,1.86,0,3.6-.52,5.1-1.41l-1.08,7.23c-.89,6.39-.57,12.17,.94,17.16,1.89,6.2,5.31,11.91,9.89,16.49,6.79,6.79,10.53,15.81,10.53,25.47l.23,7.65,.14,5.77v.13c-5.09-4.75-10.68-9.95-15.66-14.59-4.12-3.83-7.82-7.28-10.5-9.76-1.55-1.44-2.59-2.4-3.31-3.06,.36-2.43,.63-4.98,.77-7.63,1.02-18.86-4.37-33.42-12.55-33.87-.42-.02-.84,0-1.26,.06v-.8Zm5.65,55.19h-12.65c3.05-4.52,4.65-12.49,4.65-20.14s-1.55-15.36-4.5-19.92h15.33c1.36,5.09,2.07,11.71,1.66,19.28-.46,8.53-2.22,15.71-4.49,20.78Zm-4.59-50.77c2.26,.12,4.51,2.69,6.22,7.04h-13.52c2.23-4.58,4.89-7.17,7.3-7.04Zm-20.62,30.63c0-11.56,3.37-19,6.11-20.06v.14h1.62c2.68,1.46,5.81,8.77,5.81,19.92,0,11.95-3.59,19.48-6.38,20.14h-.78c-2.78-.66-6.38-8.19-6.38-20.14Zm17.43,28.2c-1.74-.09-3.49-1.66-4.98-4.39h10.8c-1.88,2.91-3.94,4.48-5.82,4.39Zm110.38,47.17c-.38,0-1.14,0-2.21,.02-41.18,.44-54.86-1.38-59.08-2.98-5.84-2.22-22.17-17.44-44.83-41.76,4.42-2.71,8.11-9.73,10.14-19.18,5.34,4.95,18.32,17.03,36.79,34.24,5.06,4.72,12.15,6.76,18.95,5.46l11.93-2.28c6.86-1.31,14.04-1.01,20.76,.86,7.91,2.2,11.63,3.27,13.37,3.79,1.45,4.76,2.44,8.42,2.49,9.51-.97,2.49-6.46,11.37-8.3,12.31Zm4.5-26.04c-2.53-.73-6.23-1.77-11.08-3.12-7.27-2.02-15.03-2.35-22.44-.93l-11.93,2.28c-5.32,1.01-10.84-.43-14.98-3.86,.14,0,.27,.02,.41,.02,.66,0,1.32-.06,1.97-.19,2.13-.42,3.86-2.95,5.75-5.96,.28-.45,.64-1.02,.72-1.12l3.6-4.41c2.03-1.99,4.71-3.09,7.55-3.09h21.95c2.88,0,5.58,1.12,7.62,3.16l3.87,3.87c.37,.37,.81,.73,1.33,1.09,.62,.43,1.3,.79,2,1.09,1.27,3.75,2.54,7.63,3.67,11.18Zm19.94-47.7c-6.87,6.87-11.73,12.58-11.73,23.58,0,.03,0,3.18-.12,5.01-.16,2.46-2.08,3.74-3.2,4.28-2.7,1.31-6.18,1.11-8.46-.47-.34-.23-.62-.46-.83-.67l-3.87-3.87c-2.73-2.73-6.36-4.23-10.22-4.23h-21.95c-3.86,0-7.49,1.5-10.22,4.23l-3.62,4.43c-.3,.32-.6,.8-1.15,1.68-.62,.99-2.5,3.99-3.34,4.3-1.83,.36-3.67-.05-5.18-1.16-1.48-1.08-2.41-2.66-2.64-4.47l-.36-13.3c0-10.58-4.12-20.53-11.6-28.01-4.16-4.16-7.26-9.33-8.97-14.96-1.36-4.48-1.64-9.72-.82-15.57l2.12-14.25c.14-.68,.22-1.38,.22-2.1v-4.87l9.18,.26c3.64,.1,5.66-.43,7.23-1.91l3.03-2.86c1.21-1.14,2.78-1.74,4.44-1.69l13.99,.4c1.66,.05,3.19,.74,4.33,1.94l2.39,2.54c1.81,1.92,4.26,3.02,6.93,3.09l23.62,.35v.02l3.57,.1c.29,0,.57,.01,.84,.01,3.12,0,4.95-.56,6.38-1.92l3.03-2.86c1.21-1.14,2.78-1.73,4.38-1.69l14.3,.84c-.86,2.03-1.88,4.02-3.07,5.95-1.01,1.65-1.55,3.55-1.55,5.48v2.71c-.07,0-.14,0-.21,0-11.26,0-20.42,9.16-20.42,20.42s9.16,20.42,20.42,20.42c4.07,0,7.86-1.2,11.05-3.26-1.8,4.49-4.5,8.62-7.93,12.05Z"/></g></g></g></svg>
